X: 624
T: Guanggunr kuqi
L: 1/8
M: 2/4
K: Eb
c c/ c/ c g [I:setbarnb 1]| 
f ec2 | 
B c e g | 
f ec2 | 
c c c g | 
f e f f | 
c e B A | 
F2f2 | 
A B c e | 
B AF2 |]

@@@ Tune index: 9498
